X:1
T:La Vie Antérieure
T:La Vie Antérieure
T:Henri Duparc
T:Ch. Baudelaire
T:Voix moyennes
C:Henri Duparc
Z:CH. Baudelaire
%%score ( 1 2 ) { ( 3 4 7 ) | ( 5 6 8 ) }
L:1/8
Q:1/4=52
M:4/4
K:C
V:1 treble nm="Chant"
V:2 treble 
V:3 treble nm="Piano"
V:4 treble 
V:7 treble 
V:5 bass 
V:6 bass 
V:8 bass 
V:1
"^Lent et solennel" z8 | z4 G3 G | c2 B A G2 D F | E2 D C G4 | G z G2 _B B A _A | G C E3 E D C | %6
w: |J'ai long-|temps ha- bi- té sous de|vas- tes por- ti-|ques Que les so- leils ma-|rins tei- gnaient de mil- le|
 C4 z2 G2 | G2 c2 _B2 _A2 | G2 E4 D G, | C E G4 G2 | G G G4 G2 | c6 F2 | (3:2:2E2 E (3ED C D4 | %13
w: feux, Et|que leurs grands pi-|liers, droits et ma-|jes- tu- eux, ren-|daient pa- reils, le|soir, aux|grot- tes ba- * sal- ti-|
 C2 z2 z2 z C ||[Q:1/4=60]"^Un peu plus vite, mais très peu" _E2 E z D2 C2 | _A2 F _E _D2 E F | %16
w: ques. Les|hou- les, en rou-|lant les i- ma- ges des|
 G4- G2 z2 | z G G3 G G G |"^poco a poco cresc." G2 A B c2 B A | B4 B z B2 | %20
w: cieux, _|Mê- laient d'u- ne fa-|çon, so- len- nelle et mys-|ti- que Les|
 c c c4"^augmentez""^cresc." c2 |"^et" e4"^pressez"[Q:1/4=64]"^T" d2"^peu               à" c2 | %22
w: tout puis- sants ac-|cords de leur|
"^peu" f4"^jusqu'au" c2 A2 |[Q:1/4=52]"^1er Mouvement" G4 G z[Q:1/4=66]"^T" G G | c4 _B2 _A2 | %25
w: ri- che mu-|si- que Aux cou-|leurs du cou-|
 G6[Q:1/4=68]"^T" G G |"^augmentez" A4 G2"^et" ^F2 |"^pressez"!ff![Q:1/4=70]"^T" B8- | B2 z2 z4 | %29
w: chant re- flé-|té par mes|yeux...|_|
 z8 | z8 | z4"^long" !fermata!z2!ff!"^largement   et" B2 || %32
w: ||C'est|
[K:A][Q:1/4=52]"^1er Mouvement""^à pleine voix" c6[Q:1/4=70]"^T" c2 | e3 B B2 c2 | d6 A2 | %35
w: là, c'est|là que j'ai vé-|cu dans|
[Q:1/4=65]"^T" B2"^dim. molto" c2 A2 F2 |[Q:1/4=60]"^T" E4"^poco rit." E z z2 || %37
w: les vo- lup- tés|cal- mes|
[M:2/4][Q:1/4=52]"^a Tempo""^presque à demi-voix et"[Q:1/4=52]"^a Tempo"!p! (3z A A (3A A A || %38
w: Au mi- lieu de l'a-|
[M:4/4]"^sans nuance, comme en une vision" A2 z A A A (3z A A | _B4 (3z A A (3A A A | %40
w: zur, des va- gues des splen-|deurs, Et des es- cla- ves|
 (3B B B (3B B B =c4 | z A A A _B B B B | A A =G G A2 A z | z2[Q:1/4=50]"^T" =F2 F F F F || %44
w: nus tout im- pré- gnés d'o- deurs|Qui me ra- frai- chis- saient le|front a- vec des pal- mes,|Et dont l'u- ni- que|
[M:2/4][Q:1/4=45]"^T""^poco rall." ^F3/2 F/ F2- |[M:4/4] F2 F2 F2 F2 || %46
w: soin é- tait|_ d'ap- pro- fon-|
[K:Eb][Q:1/4=52]"^a Tempo"[Q:1/4=52]"^a Tempo" G6 G G | F4 A2 A2 | c4- c z C2 | C2 C2 C2 C2 | %50
w: dir le se-|cret dou- lou-|reux _ qui|me fai- sait lan-|
 C4 z4 | z8 | z8 | z8 | z8 | z8[Q:1/4=48]"^T" | z8 |[Q:1/4=45]"^T" z8 | z8 | z8 | z8 |] %61
w: guir.|||||||||||
V:2
 x8 | x8 | x8 | x8 | x8 | x8 | x8 | x8 | x7 C | D x7 | x8 | x8 | x8 | x8 || x8 | x8 | x8 | x8 | %18
 x8 | x8 | x8 | x8 | x8 | x8 | x8 | x8 | x8 | x6"^toujours" x2 | x8 | x8 | x8 | x8 ||[K:A] x8 | %33
 x8 | x8 | x8 | x8 ||[M:2/4] x4 ||[M:4/4] x8 | x8 | x8 | x8 | x8 | x8 ||[M:2/4] x4 |[M:4/4] x8 || %46
[K:Eb] x8 | x8 | x8 | x8 | x8 | x8 | x8 | x8 | x8 | x8 | x8 | x8 | x8 | x8 | x8 |] %61
V:3
!p! [G,G]4- [G,G]7/2 [G,G]/ | [G,G]4- [G,G]7/2 [G,G]/ | [G,G]4- [G,G]7/2 [G,G]/ | %3
 [G,G]4- [G,G]7/2 [G,G]/ | [G,G]4- [G,G]7/2 [G,G]/ | [G,G]4- [G,G]7/2 [G,G]/ | %6
 [G,G]4- [G,G]7/2 [G,G]/ | [G,G]4- [G,G]7/2 [G,G]/ | [G,G]4- [G,G]7/2 [G,G]/ | %9
 [G,G]4- [G,G]7/2 [G,G]/ | [G,G]4- [G,G]7/2 [G,G]/ | [G,G]4- [G,G]7/2 [G,G]/ | %12
 [G,G]4- [G,G]7/2 [G,G]/ | [G,G]8 || (G,/G/_E/C/ G,/C/E/G/ G,/G/D/C/ G,/C/E/G/) | %15
 (_A,/_A/_E/_D/ A,/D/E/F/ A,/A/E/D/ A,/D/E/F/) | %16
 (G,/G/C/_E/)!>(! F/_A/f/A/ E/G/_e/G/ D/F/d/F/!>)! | (C/c/G/_E/ C/E/G/c/ B,/B/G/E/ B,/E/G/B/) | %18
 (B,/B/G/=E/ B,/E/G/B/ A,/A/F/C/ A,/C/F/A/) | (A,/A/E/B,/ A,/B,/E/A/ ^G,/^G/^C/B,/ G,/B,/E/G/) | %20
 (=G,/=G/E/_B,/ G,/B,/E/G/ ^F,/^F/_E/C/ F,/C/E/F/) | G,/G/C/G/ A,/G/=E/G/ B,/G/=F/G/ C/^G/F/G/ | %22
 z/ A2 B2 c2 d3/2 | d/ e2 e/ f2 e2 d | d c3 c ^c3 | c d3 d2 ^c2 | B2 A2 G2 ^F2 | %27
!ff! =E2 ^F2 ^C2 =C2 |[K:bass] B,2 A,2 ^G,2 ^F,2 | ^F,2[K:treble] x A2 ^G2 ^F | %30
 (B,/A,/B,/^D/ ^F/A/B/^d/ (10:8:10^f/d/B/A/F/D/B,/A,/[I:staff +1]F,/D,/) | %31
 (B,,/4A,,/4B,,/4^D,/4^F,/4A,/4[I:staff -1]B,/4^D/4!<(! ^F/4A/4B/4^d/4^f/4a/4b/4^d'/4)!8va(! [d'b']!<)!!8va)! !fermata!z z2 || %32
[K:A]!8va(! [eac'e']8 | [eabe'][eabe'][eabe'][eabe'] [egbe'][egbe'][egbe'][egbe'] | %34
 [fad'f'][fad'f'][fad'][fad'] [dfa][dfa][Bdf][Bdf]!8va)! | [Bf][Bf][B^e][Be] [Af][Af][Fc][Fc] | %36
 [=DFc][DFc][DFc][DFc]"_poco rit." [DFB][DFB][DFB][DFB] ||[M:2/4] [=C=F=c][CF][CF][CF] || %38
[M:4/4] [_C_E][CE][_B,D][B,D] [A,D][A,D][A,^C][A,C] | %39
!sfz! [=G,_B,_E=G][G,B,EG][G,B,EG][G,B,EG] [G,=B,EG][G,B,EG][G,B,EG][G,B,EG] | %40
 [^F,B,D^F][F,B,DF][F,B,DF][F,B,DF]!sfz! !^![A,=C=FA]"_marcato"!^![A,CFA]!^![A,CFA]!^![A,CFA] | %41
"^marcato" z2 (!^!=f2 !^!=g2 !^!a2 | =f2 d2 =c4) | ^c8 ||[M:2/4] c4 |[M:4/4] [A,CF]8 || %46
[K:Eb]!pp! [cegc']6 (G2 | B6 A2) | G6 C2 | E6 D2 | C4-!<(! (CEGc!<)! | _B4 =A2 _A2 | G4 GG,C_G | %53
 E4 D2 _D2) |[K:bass] C8- | C4-"_un peu ralenti" (C[K:treble]A,C_G | E4 D2 _D2 | %57
[K:bass]"_dim." C4-) C2 z3/2 G,/ |!pp! G,4- G,7/2 G,/ |"_perdendo" G,8- | !fermata![C,E,G,]8 |] %61
V:4
 z2 (F2 E2 D2) | z2 (E2 D2 F2) | z2 (F2 E2 D2) | z2 (E2 D2 F2) | z2 (E2 D2 F2) | z2 (E2 D2 F2) | %6
 z2 (F2 E2 D2) | z2 (E2 D2 F2) | z2 (E2 D2 F2) | z2 (F2 E2 D2) | z2 (E2 D2 F2) | z2 (F2 E2 D2) | %12
 z2 (E2 D2 F2) | z2 (F2 E2 D2) || x8 | x8 | x2 F2 _E2 D2 | x8 | x8 | x8 | x8 | G,2 A,2 B,2 C2 | %22
 (C/A/"_sempre cresc."F/A/ B,/B/F/A/ C/c/F/A/ D/d/-F/A/ | E/e/A/c/ F/A/f/A/ E/G/e/G/ D/F/d/-F/ | %24
 C/E/c/-E/ C/E/G/E/ ^C/E/^c/-E/ C/E/G/E/ | D/F/d/F/ D/F/D/F/ E/F/E/G/ ^c/G/E/C/ | %26
 z/ (_E/C/E/) z/ (C/A,/C/) z/ (C/G,/C/) z/) (C/^F,/C/) | %27
 z/ (A,/^F,/A,/) z/ (A,/F,/A,/) z/ (A,/E,/A,/) z/ (A,/E,/B,/) | %28
[K:bass] B,/A,/^D,/A,/ ((A,/^C,/A,/B,/ ^G,/=D,/G,/B,/) ^F,/^D,/F,/B,/) | %29
 (^F,/^D,/F,/A,/[K:treble] B,/^C/(A/C/ B,/=D/^G/D/ B,/^D/^F/)D/) | x8 | x4!8va(! x!8va)! x3 || %32
[K:A]!8va(! [eac'e']!pp![eac'e'][eac'e'][eac'e'] [eac'e'][eac'e'][eac'e'][eac'e'] | x8 | x8!8va)! | %35
 x8 | x8 ||[M:2/4] x4 ||[M:4/4] x8 | x8 | x8 | %41
 !^![=C=FA]!^![CFA]!^![FA]!^![FA] !^![=G_B]!^![GB]!^![AB]!^![AB] | %42
 [=FA][FA][DF][DF] [=CF][CF][CF][CF] | ([^C=F][CF][CF][CF]- [CF] [CF]2 [C-F] || %44
[M:2/4] [C^F]) [CF]2 [CF] |[M:4/4] x8 ||[K:Eb] z2 z C2 C2 C | z =B,2 B,2 B,2 B,- | %48
 (B,C) z G,2 G,2 G, | z [^F,=A,C]2 [F,A,C]2 [=F,A,C]2 [F,=B,] | z [E,G,]2 [E,G,]- [E,G,] z z2 | %51
 z =B,2 B,2 B,2 B,- | =B,C- C x5 | z [^F,=A,C]2 [F,A,C]2 [G,B,]2 [=E,B,]- | %54
[K:bass] [E,B,] [C,F,=A,]2 [C,F,A,]2 [C,F,_A,]2 [C,F,A,]- | %55
 [C,F,A,] [C,_G,A,]2 [C,G,A,]- [C,G,A,][K:treble] x3 | z [^F,=A,C]2 [F,A,C]2 [F,B,]2 [=F,B,]- | %57
[K:bass] [F,B,] [=E,B,]2 [D,F,]2 [_E,G,]2 [D,F,]- | [D,F,] E,2 F,2 E,2 D,- | %59
 D, [C,E,]2 [C,E,]2 [C,E,]2 [C,E,]- | x8 |] %61
V:5
 z2 (A,2 _B,2 =B,2) | z2 (A,2 _B,2 =B,2) | z2 (A,2 _B,2 =B,2) | z2 (A,2 _B,2 =B,2) | %4
 z2 (A,2 _B,2 =B,2) | z2 (A,2 _B,2 =B,2) | z2 (A,2 _B,2 =B,2) | z2 (A,2 _B,2 =B,2) | %8
 z2 (A,2 _B,2 =B,2) | z2 (A,2 _B,2 =B,2) | z2 (A,2 _B,2 =B,2) | z2 (A,2 _B,2 =B,2) | %12
 z2 (A,2 _B,2 =B,2) | z2 (A,2 _B,2 =B,2) || (3(C,,G,,C, (3_E,C,G,, (3C,,G,,C, (3E,C,G,,) | %15
 (3(C,,_A,,_D, (3F,D,A,, (3C,,A,,D, (3F,D,A,, | (3C,,G,,G,) z (_A,2 [G,_B,]2 [G,=B,]) | %17
 (3(C,_E,G, (3_A,G,E, (3G,E,G, (3A,G,E,) | (3(E,,B,,G, (3=A,G,=E, (3E,,C,F, (3G,F,C,) | %19
 (3(E,,B,,E, (3^F,E,B,, (3E,,B,,E, (3F,E,B,,) | (3(E,,=C,E, (3=F,E,C,) (3z (_A,,_E, (3_A,E,A,,) | %21
 z =E, (G,,G,/E,/ G,,G,/=F,/ G,,^E,/D,/) | (G,,A,/F,/ G,,A,/F,/ G,,A,/F,/ G,,A,/F,/) | %23
 (G,,C/A,/ G,,/G,/C/G,/ G,,/G,/_B,/G,/ G,,/G,/=B,/G,/) | %24
 z/ (G,/_B,/G,/ B,/G,/B,/G,/) z/ (G,/B,/G,/ B,/G,/B,/G,/) | %25
 z/ (G,/=B,/G,/ B,/G,/B,/G,/) C/(G,/C/A,/ G,/E,/G,/E,/) | %26
 z/ (_E,/^F,/E,/) z/ (E,/F,/E,/) z/ (C,/E,/C,/) z/ (C,/E,/C,/) | %27
!ff! z/ (^F,,/B,,/F,,/ B,,,/F,,/B,,/F,,/ B,,,/F,,/B,,/F,,/ B,,,/F,,/B,,/F,,/) | %28
 B,,,/(^F,,/B,,/F,,/ B,,,/F,,/B,,/F,,/ B,,,/^G,,/B,,/G,,/ B,,,/A,,/B,,/A,,/) | %29
 B,,,/(A,,/B,,/^D,/ ^F,/B,,/F,/A,/ ^G,/B,,/G,/B,,/ A,/B,,/A,/F,/) | %30
 (^D,/B,,/D,/^F,/"_sempre cresc." A,/[I:staff -1]B,/D/F/ (10:8:10A/F/D/B,/[I:staff +1]A,/F,/D,/B,,/A,,/^F,,/) | %31
 (^D,,/4B,,,/4D,,/4^F,,/4A,,/4B,,/4D,/4F,/4 A,/4[K:treble]B,/4^D/4^F/4A/4B/4^d/4^f/4) [fa] !fermata!z z2 || %32
[K:A][K:bass]!ff! z[K:treble] [EAc][EAc][EAc] [EAc][EAc][EAc][EAc] | %33
 [EAB][EAB][EAB][EAB] [EGB][EGB][CEG][CEG] | %34
 [B,DFA][B,DFA][B,DFA][B,DFA] [B,DFA][B,DFA][DFA][DFA] | [DG][DG][CG][CG] [CF][CF][A,^D][A,D] | %36
[K:bass] [E,A,][E,A,][E,A,][E,A,] [E,A,][E,A,][E,G,][E,G,] || %37
[M:2/4] z [A,,=F,A,][A,,F,A,][A,,F,A,] || %38
[M:4/4] [A,,=F,][A,,F,][A,,F,][A,,F,] [A,,E,][A,,E,][A,,E,][A,,E,] | [_E,,_B,,]4 [E,,=B,,]4 | %40
 [B,,,^F,,D,]4 [=F,,=C,]2 (=F,2 | z2 !^!C!^!C !^![_B,C]!^![B,C]!^![B,C]!^![B,C]) | %42
 [A,=C][A,C][_B,C][B,C] A,A,A,A, | ([=F,A,][F,A,][F,A,][F,A,]- [F,A,] [F,A,]2 [F,A,-] || %44
[M:2/4] [^F,A,]) [F,A,]2 [F,A,] |[M:4/4]!sfz! [^D,^D]8 || %46
[K:Eb]!pp! z2"^le chant en dehors et très expressif" z!p! [E,G,]2 [E,G,]2 [E,G,] | %47
 z [D,F,]2 [D,F,]2 [D,F,]2 [D,F,]- | [D,F,] [E,G,]2 E,2 E,2 E, | [C,,,C,,]8 | %50
 [C,,,C,,]4- [C,,,C,,] z z2 | z [D,F,]2 [D,F,]2 [D,F,]2 [D,F,]- | [D,F,] [E,G,]2 [E,G,]2 E,2 E, | %53
 [C,,,C,,]8- | [C,,,C,,]4 [F,,,F,,]4 | [E,,,E,,]4- [E,,,E,,] z z2 | [G,,,G,,]8 | %57
 G,,2 _A,,2 B,,2 =B,,2 | C,2 =A,,2 _B,,2 =B,,2 | [C,,G,,]8- | !fermata![C,,,C,,G,,]8 |] %61
V:6
 [C,,G,,]8 | [C,,G,,]8 | [C,,G,,]8 | [C,,G,,]8 | [C,,G,,]8 | [C,,G,,]8 | [C,,G,,]8 | [C,,G,,]8 | %8
 [C,,G,,]8 | [C,,G,,]8 | [C,,G,,]8 | [C,,G,,]8 | [C,,G,,]8 | [C,,G,,]8 || x8 | x8 | %16
 x2 C,2 C,2 C,2 | x8 | [=E,,,=E,,]8 | x8 | z4 !^![_A,,,_A,,]4 | [G,,,G,,]8- | [G,,,G,,]8- | %23
 [G,,,G,,]8 | G,,4 G,,4 | G,,8 | (G,,2 ^F,,2 G,,2 A,,2) | !^![B,,,,B,,,]8- | [B,,,,-B,,,]8 | %29
 [B,,,,B,,,]2 z2 z4 | x8 | x9/4[K:treble] x23/4 ||[K:A][K:bass] [E,,,E,,]8[K:treble] | x8 | x8 | %35
 x8 |[K:bass] x8 ||[M:2/4] [A,,,A,,]4 ||[M:4/4] x8 | x8 | x8 | !^!=G,2 !^!A,2 !^!=F,2 !^!D,2 | %42
 =C,4 C,4 | ^C,8 ||[M:2/4] C,4 |[M:4/4] x8 ||[K:Eb] [C,,,C,,]8 | [C,,,C,,]8- | %48
 [C,,,C,,]2 (C,2 B,,2 A,,2) | z8 | x8 | [C,,,C,,]8- | [C,,,C,,]2 (C,2 _B,,2 A,,2) | x8 | x8 | x8 | %56
 x8 | C,,8 | C,,8 | x8 | x8 |] %61
V:7
 x8 | x8 | x8 | x8 | x8 | x8 | x8 | x8 | x8 | x8 | x8 | x8 | x8 | x8 || x8 | x8 | x2 z f2 _e2 d | %17
 x8 | x8 | x8 | x8 | x8 | x2 B,2 C2 D2 | E2 F2 E2 D2 | x8 | x8 | x8 | x8 |[K:bass] x8 | %29
 x2[K:treble] x6 | x8 | x4!8va(! x!8va)! x3 ||[K:A]!8va(! x8 | x8 | x8!8va)! | x8 | x8 || %37
[M:2/4] x4 ||[M:4/4] x8 | x8 | x8 | x8 | x8 | x8 ||[M:2/4] x4 |[M:4/4] x8 ||[K:Eb] x8 | x8 | x8 | %49
 x8 | x8 | x8 | x8 | x8 |[K:bass] x8 | x5[K:treble] x3 | x8 |[K:bass] x8 | x8 | x8 | x8 |] %61
V:8
 x8 | x8 | x8 | x8 | x8 | x8 | x8 | x8 | x8 | x8 | x8 | x8 | x8 | x8 || x8 | x8 | x8 | x8 | x8 | %19
 x8 | x8 | x8 | x8 | x8 | x8 | x8 | x8 | x8 | x8 | x8 | x8 | x9/4[K:treble] x23/4 || %32
[K:A][K:bass] x[K:treble] x7 | x8 | x8 | x8 |[K:bass] x8 ||[M:2/4] x4 ||[M:4/4] x8 | x8 | x8 | x8 | %42
 x8 | x8 ||[M:2/4] x4 |[M:4/4] x8 ||[K:Eb] x8 | x8 | x8 | x8 | x8 | x8 | x8 | x8 | x8 | x8 | x8 | %57
 z4 z7/2 G,,/ | G,,4- G,,7/2 G,,/ | x8 | x8 |] %61

